X: 59
T: May You Behold a Sacred Stone Nation
C: Teton Sioux band 1911-1914
N: Derived from sioux059.krn
O: South Dakota, U.S.A.
N: Teton Sioux Music by Frances Densmore, 1918
Z: transcribed to **kern format by Craig Sapp
L: 1/8
M: 2/4
Q: 1/4=58
K: Db clef=treble
%%linebreak <none>
(G/ F/) [I:setbarnb 1]| 
F> FF2 | 
(3F E F D3/ F/ | 
E> E (3F E F ||  
[M:3/4]D> DD2B, E/ D/ ||  
[M:2/4]D> DD2 | 
E2B,3/ E/ | 
D> D (F/ D3/) ||  
[K:clef=bass][M:3/4]B,> B,B,2F, F,/ F,/ ||  
[M:2/4]F,> F,F,2 | 
(3F, E, F, D,3/ F,/ | 
E,> E, (3F, E, F, ||  
[M:3/4]D,> D,D,2B,, E,/ D,/ ||  
[M:2/4]D,> D,D,2 | 
D,2B,,3/ E,/ | 
D,> D, (F,/ D,3/) | 
B,,> B,, B,,3/ B,,/ | 
B,,4 | 
B,,4 |]  



